img/pages/web-literacy/web-lit-icon_read.svg

<svg id="Layer_1" data-name="Layer 1" xmlns="http://www.w3.org/2000/svg" viewBox="0 0 70 77"><defs><style>.cls-1{fill:#f89c24}</style></defs><title>MLN_Web-Literacy_Icons</title><path class="cls-1" d="M45.62 38.21a9.75 9.75 0 1 0 9.75-9.75 9.75 9.75 0 0 0-9.75 9.75zm18.49 0a8.75 8.75 0 1 1-8.75-8.75 8.76 8.76 0 0 1 8.75 8.75z"/><path class="cls-1" d="M69.49 22.36a.5.5 0 0 0 .5-.5V.5a.5.5 0 0 0-.5-.5H.5a.5.5 0 0 0-.5.5v21.36a.5.5 0 0 0 1 0V1h9.43v33.3a.5.5 0 0 0 .5.5h30.22A14.53 14.53 0 0 0 50.52 52v19.9a4.85 4.85 0 1 0 9.69 0V52a14.61 14.61 0 0 0-.46-27.74V1H69v20.86a.5.5 0 0 0 .49.5zM59.21 71.89a3.85 3.85 0 1 1-7.69 0V52.3a14.21 14.21 0 0 0 7.69 0v19.59zM69 38.21a13.63 13.63 0 1 1-13.64-13.63A13.64 13.64 0 0 1 69 38.21zM58.75 24a14.26 14.26 0 0 0-6.48-.08v-.1a.5.5 0 0 0-1 0v.36a14.6 14.6 0 0 0-5.69 3.19v-13.3a.5.5 0 0 0-1 0v14.22a.46.46 0 0 0 0 .06 14.61 14.61 0 0 0-3.18 5.48.49.49 0 0 0-.16 0H11.43V1h47.32v23zM44.27 71.7H1V27.07a.5.5 0 0 0-1 0V72.2a.5.5 0 0 0 .5.5h43.77a.5.5 0 0 0 0-1z"/><path class="cls-1" d="M18.32 10a.5.5 0 0 0 .5-.5V6.87a.5.5 0 0 0-1 0v2.62a.5.5 0 0 0 .5.51zM18.32 29.16a.5.5 0 0 0 .5-.5V13.14a.5.5 0 1 0-1 0v15.52a.5.5 0 0 0 .5.5zM25 29.16a.5.5 0 0 0 .5-.5V26a.5.5 0 0 0-1 0v2.62a.5.5 0 0 0 .5.54zM25 22a.5.5 0 0 0 .5-.5V6.87a.5.5 0 0 0-1 0v14.59a.5.5 0 0 0 .5.54zM11 59.45h27.39a.5.5 0 0 0 0-1H11a.5.5 0 0 0 0 1zM11 64.7h15.68a.5.5 0 0 0 0-1H11a.5.5 0 1 0 0 1zM11.54 53.35H31.2a1 1 0 0 0 1-1V41.06a1 1 0 0 0-1-1H11.54a1 1 0 0 0-1 1v11.29a1 1 0 0 0 1 1zm0-12.29H31.2v11.29H11.54V41.06zM31.7 12.21a.5.5 0 0 0 .5-.5V6.87a.5.5 0 1 0-1 0v4.84a.5.5 0 0 0 .5.5zM31.7 29.16a.5.5 0 0 0 .5-.5v-4.84a.5.5 0 1 0-1 0v4.84a.5.5 0 0 0 .5.5zM31.7 20.32a.5.5 0 0 0 .5-.5V15a.5.5 0 1 0-1 0v4.84a.5.5 0 0 0 .5.48zM69.49 67.14a.5.5 0 0 0-.5.5v4.09h-3.88a.5.5 0 0 0 0 1h4.38a.5.5 0 0 0 .5-.5v-4.59a.5.5 0 0 0-.5-.5zM69.49 51.39a.5.5 0 0 0-.5.5v10a.5.5 0 0 0 1 0v-10a.5.5 0 0 0-.5-.5zM38.39 29.16a.5.5 0 0 0 .5-.5V26a.5.5 0 0 0-1 0v2.62a.5.5 0 0 0 .5.54zM38.39 22.9a.5.5 0 0 0 .5-.5V6.87a.5.5 0 1 0-1 0V22.4a.5.5 0 0 0 .5.5zM45.08 10a.5.5 0 0 0 .5-.5V6.87a.5.5 0 1 0-1 0v2.62a.5.5 0 0 0 .5.51zM51.77 12.21a.5.5 0 0 0 .5-.5V6.87a.5.5 0 1 0-1 0v4.84a.5.5 0 0 0 .5.5zM51.77 21a.5.5 0 0 0 .5-.5v-4.79a.5.5 0 1 0-1 0v4.84a.5.5 0 0 0 .5.45z"/></svg>

<svg id="Layer_1" data-name="Layer 1" xmlns="http://www.w3.org/2000/svg" viewBox="0 0 70 77"><defs><style>.cls-1{fill:#f89c24;}</style></defs><title>MLN_Web-Literacy_Icons</title><path class="cls-1" d="M45.62,38.21a9.75,9.75,0,1,0,9.75-9.75A9.75,9.75,0,0,0,45.62,38.21Zm18.49,0a8.75,8.75,0,1,1-8.75-8.75A8.76,8.76,0,0,1,64.11,38.21Z"/><path class="cls-1" d="M69.49,22.36a0.5,0.5,0,0,0,.5-0.5V0.5a0.5,0.5,0,0,0-.5-0.5H0.5A0.5,0.5,0,0,0,0,.5V21.86a0.5,0.5,0,0,0,1,0V1h9.43V34.3a0.5,0.5,0,0,0,.5.5H41.15A14.53,14.53,0,0,0,50.52,52v19.9a4.85,4.85,0,1,0,9.69,0V52a14.61,14.61,0,0,0-.46-27.74V1H69V21.86A0.5,0.5,0,0,0,69.49,22.36ZM59.21,71.89a3.85,3.85,0,1,1-7.69,0V52.3a14.21,14.21,0,0,0,7.69,0V71.89ZM69,38.21A13.63,13.63,0,1,1,55.36,24.58,13.64,13.64,0,0,1,69,38.21ZM58.75,24a14.26,14.26,0,0,0-6.48-.08v-0.1a0.5,0.5,0,0,0-1,0v0.36a14.6,14.6,0,0,0-5.69,3.19V14.07a0.5,0.5,0,0,0-1,0V28.29a0.46,0.46,0,0,0,0,.06,14.61,14.61,0,0,0-3.18,5.48,0.49,0.49,0,0,0-.16,0H11.43V1H58.75V24Z"/><path class="cls-1" d="M44.27,71.7H1V27.07a0.5,0.5,0,0,0-1,0V72.2a0.5,0.5,0,0,0,.5.5H44.27A0.5,0.5,0,0,0,44.27,71.7Z"/><path class="cls-1" d="M18.32,10a0.5,0.5,0,0,0,.5-0.5V6.87a0.5,0.5,0,0,0-1,0V9.49A0.5,0.5,0,0,0,18.32,10Z"/><path class="cls-1" d="M18.32,29.16a0.5,0.5,0,0,0,.5-0.5V13.14a0.5,0.5,0,1,0-1,0V28.66A0.5,0.5,0,0,0,18.32,29.16Z"/><path class="cls-1" d="M25,29.16a0.5,0.5,0,0,0,.5-0.5V26a0.5,0.5,0,0,0-1,0v2.62A0.5,0.5,0,0,0,25,29.16Z"/><path class="cls-1" d="M25,22a0.5,0.5,0,0,0,.5-0.5V6.87a0.5,0.5,0,0,0-1,0V21.46A0.5,0.5,0,0,0,25,22Z"/><path class="cls-1" d="M11,59.45H38.39a0.5,0.5,0,0,0,0-1H11A0.5,0.5,0,0,0,11,59.45Z"/><path class="cls-1" d="M11,64.7H26.68a0.5,0.5,0,0,0,0-1H11A0.5,0.5,0,1,0,11,64.7Z"/><path class="cls-1" d="M11.54,53.35H31.2a1,1,0,0,0,1-1V41.06a1,1,0,0,0-1-1H11.54a1,1,0,0,0-1,1V52.35A1,1,0,0,0,11.54,53.35Zm0-12.29H31.2V52.35H11.54V41.06Z"/><path class="cls-1" d="M31.7,12.21a0.5,0.5,0,0,0,.5-0.5V6.87a0.5,0.5,0,1,0-1,0v4.84A0.5,0.5,0,0,0,31.7,12.21Z"/><path class="cls-1" d="M31.7,29.16a0.5,0.5,0,0,0,.5-0.5V23.82a0.5,0.5,0,1,0-1,0v4.84A0.5,0.5,0,0,0,31.7,29.16Z"/><path class="cls-1" d="M31.7,20.32a0.5,0.5,0,0,0,.5-0.5V15a0.5,0.5,0,1,0-1,0v4.84A0.5,0.5,0,0,0,31.7,20.32Z"/><path class="cls-1" d="M69.49,67.14a0.5,0.5,0,0,0-.5.5v4.09H65.11a0.5,0.5,0,0,0,0,1h4.38a0.5,0.5,0,0,0,.5-0.5V67.64A0.5,0.5,0,0,0,69.49,67.14Z"/><path class="cls-1" d="M69.49,51.39a0.5,0.5,0,0,0-.5.5v10a0.5,0.5,0,0,0,1,0v-10A0.5,0.5,0,0,0,69.49,51.39Z"/><path class="cls-1" d="M38.39,29.16a0.5,0.5,0,0,0,.5-0.5V26a0.5,0.5,0,0,0-1,0v2.62A0.5,0.5,0,0,0,38.39,29.16Z"/><path class="cls-1" d="M38.39,22.9a0.5,0.5,0,0,0,.5-0.5V6.87a0.5,0.5,0,1,0-1,0V22.4A0.5,0.5,0,0,0,38.39,22.9Z"/><path class="cls-1" d="M45.08,10a0.5,0.5,0,0,0,.5-0.5V6.87a0.5,0.5,0,1,0-1,0V9.49A0.5,0.5,0,0,0,45.08,10Z"/><path class="cls-1" d="M51.77,12.21a0.5,0.5,0,0,0,.5-0.5V6.87a0.5,0.5,0,1,0-1,0v4.84A0.5,0.5,0,0,0,51.77,12.21Z"/><path class="cls-1" d="M51.77,21a0.5,0.5,0,0,0,.5-0.5V15.71a0.5,0.5,0,1,0-1,0v4.84A0.5,0.5,0,0,0,51.77,21Z"/></svg>
